X: 117
T: Yifu shouzhuo The two golden bracelets
L: 1/8
M: 2/4
K: C
E EA2 [I:setbarnb 1]| 
G AA,2 | 
D D E G | 
A4 | 
C D E A | 
E E G, A, | 
D2C E | 
A,4 | 
E EA2 | 
G AA,2 | 
D D E G | 
A4 | 
C D E A | 
E E G, A, | 
D2C E | 
A,4 |]

@@@ Tune index: 8785
